assets/svg/wallet_icon_profile_coininwallet.svg

<svg width="80" height="80" viewBox="0 0 80 80" fill="none" xmlns="http://www.w3.org/2000/svg">
<path d="M40.1023 8.05312H28.6195C27.6789 8.05312 26.843 7.45156 26.5445 6.55781L25.1914 2.5H43.532L42.1789 6.55781C42.0332 6.99328 41.7544 7.37195 41.3817 7.64028C41.0091 7.90861 40.5615 8.05303 40.1023 8.05312ZM50.3586 68.1021V70.5203C50.3586 72.8641 48.4586 74.7641 46.1148 74.7641H27.3555C25.8461 74.7641 24.6211 75.9891 24.6211 77.4984H46.1148C49.9695 77.4984 53.093 74.3734 53.093 70.5203V69.188L50.3586 68.1021Z" fill="#E1EAF8"/>
<path d="M46.1109 78.0463H22.6031C18.4531 78.0463 15.0781 74.6697 15.0781 70.5213V61.79C15.0781 61.4885 15.3234 61.2432 15.625 61.2432C15.9266 61.2432 16.1719 61.4885 16.1719 61.79V70.5213C16.1719 74.0682 19.0578 76.9525 22.6031 76.9525H46.1109C49.6578 76.9525 52.5422 74.0666 52.5422 70.5213V69.189C52.5422 68.8874 52.7875 68.6421 53.0891 68.6421C53.3906 68.6421 53.6359 68.8874 53.6359 69.189V70.5213C53.6359 74.6697 50.2609 78.0463 46.1109 78.0463Z" fill="#9A9A9A"/>
<path d="M52.5422 9.47812V33.024C52.5422 33.3255 52.7875 33.5708 53.0891 33.5708C53.3906 33.5708 53.6359 33.3255 53.6359 33.024V9.47812C53.6359 5.32812 50.2594 1.95312 46.1109 1.95312H22.6031C18.4531 1.95312 15.0781 5.32969 15.0781 9.47812V57.5375C15.0781 57.8391 15.3234 58.0844 15.625 58.0844C15.9266 58.0844 16.1719 57.8391 16.1719 57.5375V9.47812C16.1719 5.93125 19.0578 3.04688 22.6031 3.04688H46.1109C49.6578 3.04688 52.5422 5.93281 52.5422 9.47812Z" fill="#9A9A9A"/>
<path d="M36.3094 44.7314C36.2281 44.7314 36.1453 44.7127 36.0672 44.6752L32.4203 42.8674C32.293 42.8014 32.1967 42.6881 32.1521 42.5518C32.1075 42.4155 32.1182 42.2672 32.182 42.1388C32.2457 42.0103 32.3573 41.912 32.4928 41.8651C32.6282 41.8181 32.7767 41.8262 32.9063 41.8877L36.5516 43.6939C36.6815 43.7584 36.7805 43.8718 36.8268 44.0092C36.8731 44.1466 36.8629 44.2968 36.7985 44.4267C36.7535 44.5181 36.6839 44.595 36.5974 44.6489C36.511 44.7027 36.4112 44.7313 36.3094 44.7314ZM32.8828 58.9064C32.6813 58.9064 32.486 58.7939 32.3906 58.6002C32.3269 58.47 32.3175 58.3199 32.3644 58.1828C32.4112 58.0457 32.5106 57.9328 32.6406 57.8689L36.2953 56.0783C36.4255 56.0146 36.5756 56.0051 36.7127 56.052C36.8498 56.0989 36.9627 56.1982 37.0266 56.3283C37.0903 56.4584 37.0997 56.6085 37.0529 56.7456C37.006 56.8827 36.9066 56.9956 36.7766 57.0595L33.1235 58.8502C33.0453 58.8892 32.9625 58.9064 32.8828 58.9064ZM70.3047 42.1694C70.1157 42.1694 69.9313 42.071 69.8297 41.8944C69.7939 41.8322 69.7706 41.7635 69.7614 41.6922C69.7521 41.621 69.757 41.5486 69.7757 41.4792C69.7944 41.4099 69.8266 41.3449 69.8705 41.288C69.9143 41.231 69.969 41.1833 70.0313 41.1476L73.5578 39.1194C73.6835 39.0485 73.8322 39.0301 73.9714 39.0682C74.1106 39.1064 74.2291 39.198 74.301 39.3231C74.373 39.4483 74.3925 39.5968 74.3555 39.7363C74.3184 39.8758 74.2277 39.995 74.1031 40.0679L70.5766 42.096C70.4922 42.146 70.3969 42.1694 70.3047 42.1694ZM59.8813 35.4772C59.8033 35.4774 59.7262 35.4609 59.6552 35.4288C59.5842 35.3967 59.5209 35.3498 59.4695 35.2912C59.4181 35.2325 59.3799 35.1636 59.3574 35.089C59.3349 35.0143 59.3287 34.9357 59.3391 34.8585L59.8797 30.8257C59.9203 30.5257 60.1953 30.3147 60.4938 30.3569C60.7938 30.3976 61.0031 30.6726 60.9625 30.971L60.4219 35.0038C60.4042 35.1347 60.3397 35.2548 60.2403 35.3418C60.1409 35.4289 60.0134 35.477 59.8813 35.4772Z" fill="#0166FF"/>
<path d="M32.0833 25.2784C32.0833 26.8894 34.6947 28.1951 37.9167 28.1951C41.1386 28.1951 43.75 26.8894 43.75 25.2784M32.0833 25.2784C32.0833 23.6675 34.6947 22.3618 37.9167 22.3618C41.1386 22.3618 43.75 23.6675 43.75 25.2784M32.0833 25.2784V29.1673C32.0833 30.7773 34.6947 32.084 37.9167 32.084C41.1386 32.084 43.75 30.7773 43.75 29.1673V25.2784M26.25 17.5007C26.25 18.5429 27.3622 19.5054 29.1667 20.0265C30.9711 20.5476 33.1956 20.5476 35 20.0265C36.8044 19.5054 37.9167 18.5429 37.9167 17.5007C37.9167 16.4584 36.8044 15.4959 35 14.9748C33.1956 14.4537 30.9711 14.4537 29.1667 14.9748C27.3622 15.4959 26.25 16.4584 26.25 17.5007ZM26.25 17.5007V27.2229C26.25 28.0862 27.0006 28.6326 28.1944 29.1673M26.25 22.3618C26.25 23.2251 27.0006 23.7715 28.1944 24.3062" stroke="#9A9A9A" stroke-linecap="round" stroke-linejoin="round"/>
<circle cx="53" cy="51" r="11" fill="#0166FF"/>
<path d="M49 51L52 54L58 48" stroke="white" stroke-width="1.2" stroke-linecap="round" stroke-linejoin="round"/>
<mask id="path-8-inside-1_52554_272427" fill="white">
<path d="M6.61932 64.1663C6.38258 64.1663 6.24053 64.0235 6.19318 63.7854C6.00379 62.9759 5.625 62.214 5.00947 61.5949C4.39394 60.9759 3.68371 60.5949 2.87879 60.4044C2.64205 60.4044 2.5 60.214 2.5 60.0235C2.5 59.833 2.64205 59.6425 2.87879 59.5949C3.68371 59.4521 4.44129 59.0235 5.05682 58.4044C5.67235 57.7854 6.05114 57.0711 6.24053 56.214C6.28788 55.9759 6.47727 55.833 6.66667 55.833C6.85606 55.833 7.04545 55.9759 7.0928 56.214C7.2822 57.0235 7.66098 57.7854 8.27652 58.4044C8.89205 59.0235 9.60227 59.4044 10.4545 59.5949C10.6913 59.6425 10.8333 59.833 10.8333 60.0235C10.8333 60.214 10.6913 60.4044 10.4545 60.4521C8.79735 60.7854 7.47159 62.1187 7.14015 63.7854C6.99811 64.0235 6.85606 64.1663 6.61932 64.1663ZM3.87311 60.0235C4.48864 60.2616 5.05682 60.6425 5.5303 61.1187C6.00379 61.5949 6.38258 62.1663 6.61932 62.7854C7.14015 61.4997 8.13447 60.4997 9.36553 59.9759C8.75 59.7378 8.18182 59.3568 7.70833 58.8806C7.23485 58.4044 6.85606 57.833 6.61932 57.214C6.38258 57.833 6.00379 58.4044 5.5303 58.8806C5.05682 59.4044 4.48864 59.7854 3.87311 60.0235Z"/>
</mask>
<path d="M6.61932 64.1663C6.38258 64.1663 6.24053 64.0235 6.19318 63.7854C6.00379 62.9759 5.625 62.214 5.00947 61.5949C4.39394 60.9759 3.68371 60.5949 2.87879 60.4044C2.64205 60.4044 2.5 60.214 2.5 60.0235C2.5 59.833 2.64205 59.6425 2.87879 59.5949C3.68371 59.4521 4.44129 59.0235 5.05682 58.4044C5.67235 57.7854 6.05114 57.0711 6.24053 56.214C6.28788 55.9759 6.47727 55.833 6.66667 55.833C6.85606 55.833 7.04545 55.9759 7.0928 56.214C7.2822 57.0235 7.66098 57.7854 8.27652 58.4044C8.89205 59.0235 9.60227 59.4044 10.4545 59.5949C10.6913 59.6425 10.8333 59.833 10.8333 60.0235C10.8333 60.214 10.6913 60.4044 10.4545 60.4521C8.79735 60.7854 7.47159 62.1187 7.14015 63.7854C6.99811 64.0235 6.85606 64.1663 6.61932 64.1663ZM3.87311 60.0235C4.48864 60.2616 5.05682 60.6425 5.5303 61.1187C6.00379 61.5949 6.38258 62.1663 6.61932 62.7854C7.14015 61.4997 8.13447 60.4997 9.36553 59.9759C8.75 59.7378 8.18182 59.3568 7.70833 58.8806C7.23485 58.4044 6.85606 57.833 6.61932 57.214C6.38258 57.833 6.00379 58.4044 5.5303 58.8806C5.05682 59.4044 4.48864 59.7854 3.87311 60.0235Z" fill="#9A9A9A"/>
<path d="M6.19318 63.7854L10.9757 62.8343L10.9598 62.7541L10.9412 62.6746L6.19318 63.7854ZM2.87879 60.4044L4.00167 55.6593L3.44788 55.5282H2.87879V60.4044ZM2.87879 59.5949L2.02668 54.7937L1.97184 54.8035L1.91724 54.8145L2.87879 59.5949ZM6.24053 56.214L11.0019 57.266L11.013 57.2156L11.0231 57.165L6.24053 56.214ZM7.0928 56.214L2.31026 57.165L2.3262 57.2452L2.34482 57.3248L7.0928 56.214ZM10.4545 59.5949L9.39099 64.3537L9.44188 64.3651L9.49299 64.3754L10.4545 59.5949ZM10.4545 60.4521L11.4161 65.2325L10.4545 60.4521ZM7.14015 63.7854L11.3277 66.2837L11.7586 65.5614L11.9227 64.7365L7.14015 63.7854ZM3.87311 60.0235L2.11395 55.4757L-9.64318 60.0235L2.11395 64.5713L3.87311 60.0235ZM6.61932 62.7854L2.06482 64.5272L6.48874 76.0951L11.1388 64.6162L6.61932 62.7854ZM9.36553 59.9759L11.2747 64.4628L22.3255 59.7607L11.1247 55.428L9.36553 59.9759ZM6.61932 57.214L11.1738 55.4722L6.61932 43.5628L2.06482 55.4722L6.61932 57.214ZM5.5303 58.8806L2.07251 55.4425L1.99071 55.5247L1.91293 55.6108L5.5303 58.8806ZM6.61932 59.2901C7.54139 59.2901 8.684 59.5983 9.64039 60.48C10.5321 61.3021 10.8599 62.2521 10.9757 62.8343L1.41064 64.7365C1.57378 65.5568 1.99632 66.6973 3.03006 67.6503C4.1285 68.6629 5.4605 69.0425 6.61932 69.0425V59.2901ZM10.9412 62.6746C10.5767 61.1168 9.8097 59.5069 8.46727 58.1568L1.55167 65.0331C1.50298 64.9841 1.46982 64.9346 1.45129 64.8996C1.4343 64.8675 1.43729 64.8624 1.4452 64.8962L10.9412 62.6746ZM8.46727 58.1568C7.18666 56.8688 5.65801 56.0512 4.00167 55.6593L1.7559 65.1496C1.75676 65.1498 1.71523 65.1392 1.65493 65.1059C1.59351 65.0719 1.55783 65.0393 1.55167 65.0331L8.46727 58.1568ZM2.87879 55.5282C5.75072 55.5282 7.37619 57.9562 7.37619 60.0235H-2.37619C-2.37619 62.4717 -0.466626 65.2806 2.87879 65.2806V55.5282ZM7.37619 60.0235C7.37619 62.2662 5.76994 63.9872 3.84034 64.3754L1.91724 54.8145C-0.485852 55.2978 -2.37619 57.3998 -2.37619 60.0235H7.37619ZM3.73089 64.3961C5.66689 64.0525 7.30124 63.0629 8.51461 61.8426L1.59902 54.9663C1.59913 54.9662 1.60472 54.9605 1.61744 54.9509C1.63015 54.9412 1.65181 54.9261 1.68391 54.9084C1.74737 54.8734 1.86136 54.8231 2.02668 54.7937L3.73089 64.3961ZM8.51461 61.8426C9.81275 60.537 10.6226 58.9826 11.0019 57.266L1.47919 55.1619C1.47213 55.1938 1.47702 55.1575 1.51414 55.0885C1.53118 55.0568 1.5499 55.0279 1.56795 55.0037C1.58579 54.9798 1.59791 54.9674 1.59902 54.9663L8.51461 61.8426ZM11.0231 57.165C10.6462 59.0601 8.95188 60.7092 6.66667 60.7092V50.9568C4.00266 50.9568 1.92954 52.8916 1.45799 55.2629L11.0231 57.165ZM6.66667 60.7092C4.38144 60.7092 2.68712 59.0601 2.31026 57.165L11.8753 55.2629C11.4038 52.8916 9.33068 50.9568 6.66667 50.9568V60.7092ZM2.34482 57.3248C2.70926 58.8825 3.47629 60.4925 4.81872 61.8426L11.7343 54.9663C11.783 55.0153 11.8162 55.0647 11.8347 55.0997C11.8517 55.1318 11.8487 55.137 11.8408 55.1031L2.34482 57.3248ZM4.81872 61.8426C6.11738 63.1487 7.6696 63.969 9.39099 64.3537L11.5181 54.8361C11.4927 54.8304 11.5343 54.8375 11.6072 54.8771C11.6407 54.8953 11.6709 54.9151 11.6958 54.934C11.7205 54.9526 11.7332 54.9652 11.7343 54.9663L4.81872 61.8426ZM9.49299 64.3754C7.5634 63.9872 5.95714 62.2662 5.95714 60.0235H15.7095C15.7095 57.3998 13.8192 55.2978 11.4161 54.8145L9.49299 64.3754ZM5.95714 60.0235C5.95714 57.7808 7.5634 56.0597 9.49299 55.6716L11.4161 65.2325C13.8192 64.7491 15.7095 62.6472 15.7095 60.0235H5.95714ZM9.49299 55.6716C5.89252 56.3958 3.07032 59.2504 2.35761 62.8343L11.9227 64.7365C11.894 64.881 11.828 64.9865 11.758 65.0569C11.688 65.1273 11.5761 65.2003 11.4161 65.2325L9.49299 55.6716ZM2.95257 61.2871C2.98516 61.2325 3.27805 60.7244 3.89201 60.2393C4.65522 59.6362 5.62176 59.2901 6.61932 59.2901V69.0425C7.85362 69.0425 9.00955 68.6251 9.93848 67.891C10.7182 67.2749 11.1531 66.5764 11.3277 66.2837L2.95257 61.2871ZM2.11395 64.5713C2.07762 64.5572 2.06092 64.5462 2.0595 64.5453C2.05806 64.5443 2.0638 64.5481 2.07251 64.5569L8.9881 57.6806C8.06597 56.7532 6.92842 55.977 5.63226 55.4757L2.11395 64.5713ZM2.07251 64.5569C2.07642 64.5608 2.07979 64.5646 2.08244 64.5679C2.08509 64.5711 2.08625 64.5729 2.08607 64.5726C2.08589 64.5724 2.08373 64.5691 2.08017 64.5621C2.0766 64.5552 2.07114 64.5437 2.06482 64.5272L11.1738 61.0436C10.6786 59.7487 9.91038 58.6081 8.9881 57.6806L2.07251 64.5569ZM11.1388 64.6162C11.1763 64.5235 11.2337 64.4802 11.2747 64.4628L7.45637 55.489C5.03525 56.5191 3.10397 58.4759 2.09987 60.9546L11.1388 64.6162ZM11.1247 55.428C11.161 55.4421 11.1777 55.4531 11.1791 55.4541C11.1806 55.455 11.1748 55.4512 11.1661 55.4425L4.25054 62.3188C5.17266 63.2462 6.31021 64.0223 7.60638 64.5237L11.1247 55.428ZM11.1661 55.4425C11.1622 55.4385 11.1588 55.4347 11.1562 55.4315C11.1535 55.4282 11.1524 55.4264 11.1526 55.4267C11.1527 55.427 11.1549 55.4303 11.1585 55.4372C11.162 55.4441 11.1675 55.4556 11.1738 55.4722L2.06482 58.9557C2.56003 60.2506 3.32826 61.3912 4.25054 62.3188L11.1661 55.4425ZM2.06482 55.4722C2.07114 55.4556 2.0766 55.4441 2.08017 55.4372C2.08373 55.4303 2.08589 55.427 2.08607 55.4267C2.08625 55.4264 2.08509 55.4282 2.08244 55.4315C2.07979 55.4347 2.07642 55.4385 2.07251 55.4425L8.9881 62.3188C9.91038 61.3912 10.6786 60.2506 11.1738 58.9557L2.06482 55.4722ZM1.91293 55.6108C1.93356 55.588 1.96273 55.5614 2.00001 55.5358C2.0369 55.5106 2.07575 55.4904 2.11395 55.4757L5.63226 64.5713C6.94579 64.0632 8.15406 63.2497 9.14768 62.1505L1.91293 55.6108Z" fill="#9A9A9A" mask="url(#path-8-inside-1_52554_272427)"/>
<path d="M79.8677 13.7144C79.8677 12.7707 79.1005 12.0035 78.1552 12.0035H75.2552L75.9927 8.07066C76.124 7.37379 75.9662 6.67379 75.549 6.10035C75.1334 5.52691 74.5162 5.15973 73.813 5.0691C73.263 4.99723 72.7474 5.38629 72.6646 5.93473L72.2896 8.43004C72.1318 9.47691 71.4084 10.33 70.4005 10.655C69.3334 10.9988 68.5115 11.891 68.2537 12.9832C68.2521 12.9925 68.2443 12.9988 68.2349 12.9988H66.8834C66.7755 12.305 66.1755 11.7707 65.4521 11.7707H62.2334C61.9755 11.7707 61.7302 11.8816 61.5599 12.0738C61.3896 12.266 61.3084 12.5222 61.338 12.7785L62.3162 21.1035C62.3693 21.5582 62.7552 21.9004 63.2115 21.9004H65.4521C66.1271 21.9004 66.6943 21.4363 66.8552 20.8097H67.0443C67.1365 20.8097 67.2287 20.841 67.3005 20.8972L67.7177 21.2222C68.7115 21.9925 69.949 22.4175 71.2037 22.4175H76.8927C77.8365 22.4175 78.6037 21.6504 78.6037 20.7066C78.6037 20.3425 78.488 20.0066 78.2943 19.7285C78.7099 19.4097 78.9802 18.9097 78.9802 18.3457C78.9802 18.0222 78.8865 17.7207 78.7271 17.4629C79.1927 17.1488 79.5005 16.6175 79.5005 16.016C79.5005 15.6629 79.3912 15.3363 79.2037 15.066C79.6084 14.7488 79.8677 14.2613 79.8677 13.7144ZM65.8099 20.4488C65.8099 20.6457 65.6505 20.805 65.4537 20.805H63.3834L62.4505 12.8629H65.4537C65.6505 12.8629 65.8099 13.0222 65.8099 13.2191V20.4488ZM76.8959 21.3222H71.2068C70.1873 21.3202 69.1973 20.9807 68.3912 20.3566L67.9724 20.0316C67.707 19.8266 67.3812 19.7151 67.0459 19.7144H66.9037V14.091H68.2365C68.7552 14.091 69.2005 13.7379 69.3193 13.2332C69.4896 12.5129 70.0318 11.9238 70.7365 11.6957C72.1427 11.2425 73.1521 10.0535 73.3709 8.59254L73.7365 6.16441C74.1115 6.23004 74.4396 6.43316 74.6646 6.7441C74.7817 6.90421 74.8647 7.08672 74.9082 7.28026C74.9518 7.47381 74.955 7.67425 74.9177 7.8691L74.1709 11.8472C74.113 12.1566 74.1943 12.4738 74.3959 12.716C74.5974 12.9582 74.8927 13.0972 75.2084 13.0972H78.1552C78.4959 13.0972 78.774 13.3738 78.774 13.7144C78.774 14.055 78.4974 14.3316 78.1552 14.3316H76.149C75.8474 14.3316 75.6021 14.5769 75.6021 14.8785C75.6021 15.18 75.8474 15.4254 76.149 15.4254H77.8224C78.1459 15.4254 78.4084 15.6879 78.4084 16.0113C78.4079 16.1836 78.3393 16.3486 78.2175 16.4705C78.0957 16.5923 77.9306 16.6609 77.7584 16.6613H76.2849C75.9834 16.6613 75.738 16.9066 75.738 17.2082C75.738 17.5097 75.9834 17.755 76.2849 17.755H77.3021C77.6255 17.755 77.888 18.0175 77.888 18.341C77.8876 18.5132 77.819 18.6783 77.6972 18.8001C77.5754 18.9219 77.4103 18.9906 77.238 18.991H76.0959C75.7943 18.991 75.549 19.2363 75.549 19.5379C75.549 19.8394 75.7943 20.0847 76.0959 20.0847H76.8927C77.2334 20.0847 77.5115 20.3613 77.5115 20.7019C77.5115 21.0425 77.2365 21.3222 76.8959 21.3222Z" fill="#9A9A9A"/>
</svg>

<svg xmlns="http://www.w3.org/2000/svg" width="80" height="80" fill="none"><path fill="#E1EAF8" d="M40.102 8.053H28.62c-.941 0-1.777-.601-2.076-1.495L25.191 2.5h18.341l-1.353 4.058a2.19 2.19 0 0 1-2.077 1.495m10.257 60.05v2.417c0 2.344-1.9 4.244-4.244 4.244h-18.76a2.735 2.735 0 0 0-2.734 2.734h21.494a6.98 6.98 0 0 0 6.978-6.978v-1.332z"/><path fill="#9A9A9A" d="M46.11 78.046H22.604c-4.15 0-7.525-3.376-7.525-7.525V61.79a.547.547 0 0 1 1.094 0v8.731a6.44 6.44 0 0 0 6.431 6.432h23.508a6.44 6.44 0 0 0 6.431-6.432V69.19a.547.547 0 0 1 1.094 0v1.332c0 4.149-3.375 7.525-7.525 7.525M52.542 9.478v23.546a.547.547 0 0 0 1.094 0V9.478c0-4.15-3.377-7.525-7.525-7.525H22.603c-4.15 0-7.525 3.377-7.525 7.525v48.06a.547.547 0 0 0 1.094 0V9.478a6.44 6.44 0 0 1 6.431-6.431h23.508a6.44 6.44 0 0 1 6.431 6.431"/><path fill="#0166FF" d="M36.31 44.731a.6.6 0 0 1-.243-.056l-3.647-1.808a.547.547 0 0 1 .486-.98l3.646 1.807a.547.547 0 0 1-.243 1.037m-3.427 14.175a.55.55 0 0 1-.519-.723.55.55 0 0 1 .277-.314l3.654-1.79a.547.547 0 0 1 .482.98l-3.654 1.791a.54.54 0 0 1-.24.056M70.305 42.17a.547.547 0 0 1-.274-1.021l3.527-2.029a.548.548 0 0 1 .545.949l-3.526 2.028a.54.54 0 0 1-.272.073M59.88 35.477a.545.545 0 0 1-.542-.618l.54-4.033a.546.546 0 1 1 1.083.145l-.54 4.033a.55.55 0 0 1-.54.473"/><path stroke="#9A9A9A" stroke-linecap="round" stroke-linejoin="round" d="M32.083 25.278c0 1.611 2.612 2.917 5.834 2.917s5.833-1.306 5.833-2.917m-11.667 0c0-1.61 2.612-2.916 5.834-2.916s5.833 1.306 5.833 2.916m-11.667 0v3.89c0 1.61 2.612 2.916 5.834 2.916s5.833-1.307 5.833-2.917v-3.889m-17.5-7.777c0 1.042 1.112 2.004 2.917 2.525 1.804.522 4.029.522 5.833 0 1.804-.52 2.917-1.483 2.917-2.525 0-1.043-1.113-2.005-2.917-2.526s-4.029-.521-5.833 0c-1.805.52-2.917 1.483-2.917 2.526m0 0v9.722c0 .863.75 1.41 1.944 1.944m-1.944-6.805c0 .863.75 1.41 1.944 1.944"/><circle cx="53" cy="51" r="11" fill="#0166FF"/><path stroke="#fff" stroke-linecap="round" stroke-linejoin="round" stroke-width="1.2" d="m49 51 3 3 6-6"/><mask id="a" fill="#fff"><path d="M6.62 64.166c-.237 0-.38-.142-.427-.38-.19-.81-.568-1.572-1.184-2.191a4.34 4.34 0 0 0-2.13-1.19.375.375 0 0 1-.379-.382.45.45 0 0 1 .379-.428c.805-.143 1.562-.572 2.178-1.19a4.33 4.33 0 0 0 1.184-2.191c.047-.238.236-.381.426-.381s.378.143.426.381c.19.81.568 1.571 1.184 2.19.615.62 1.325 1 2.178 1.19a.45.45 0 0 1 .378.43.45.45 0 0 1-.379.428 4.27 4.27 0 0 0-3.314 3.333c-.142.239-.284.381-.52.381m-2.747-4.142a4.8 4.8 0 0 1 1.657 1.095 4.8 4.8 0 0 1 1.09 1.666 5.14 5.14 0 0 1 2.746-2.81 4.8 4.8 0 0 1-1.658-1.094 4.8 4.8 0 0 1-1.089-1.667 4.8 4.8 0 0 1-1.089 1.667 4.3 4.3 0 0 1-1.657 1.142"/></mask><path fill="#9A9A9A" d="M6.62 64.166c-.237 0-.38-.142-.427-.38-.19-.81-.568-1.572-1.184-2.191a4.34 4.34 0 0 0-2.13-1.19.375.375 0 0 1-.379-.382.45.45 0 0 1 .379-.428c.805-.143 1.562-.572 2.178-1.19a4.33 4.33 0 0 0 1.184-2.191c.047-.238.236-.381.426-.381s.378.143.426.381c.19.81.568 1.571 1.184 2.19.615.62 1.325 1 2.178 1.19a.45.45 0 0 1 .378.43.45.45 0 0 1-.379.428 4.27 4.27 0 0 0-3.314 3.333c-.142.239-.284.381-.52.381m-2.747-4.142a4.8 4.8 0 0 1 1.657 1.095 4.8 4.8 0 0 1 1.09 1.666 5.14 5.14 0 0 1 2.746-2.81 4.8 4.8 0 0 1-1.658-1.094 4.8 4.8 0 0 1-1.089-1.667 4.8 4.8 0 0 1-1.089 1.667 4.3 4.3 0 0 1-1.657 1.142"/><path fill="#9A9A9A" d="m6.193 63.785 4.783-.95-.016-.08-.019-.08zm-3.314-3.38 1.123-4.746-.554-.13h-.57zm0-.81-.852-4.801-.055.01-.055.01zm3.362-3.381L11 57.266l.012-.05.01-.051zm.852 0-4.783.951.016.08.019.08zm3.361 3.38-1.063 4.76.05.011.052.01zm0 .858.962 4.78zM7.14 63.785l4.188 2.499.43-.723.165-.825zm-3.267-3.761-1.76-4.548-11.756 4.547 11.757 4.548zm2.746 2.761-4.554 1.742 4.424 11.568 4.65-11.479zm2.747-2.81 1.909 4.488 11.05-4.702-11.2-4.333zm-2.747-2.761 4.555-1.742-4.555-11.91-4.554 11.91zM5.53 58.881l-3.457-3.438-.082.082-.078.086zm1.09.41c.921 0 2.064.307 3.02 1.189a4.38 4.38 0 0 1 1.336 2.354L1.41 64.737c.163.82.585 1.96 1.62 2.913a5.28 5.28 0 0 0 3.588 1.392zm4.321 3.384c-.364-1.558-1.131-3.168-2.474-4.518l-6.915 6.876a.6.6 0 0 1-.1-.133c-.018-.032-.015-.038-.007-.004zm-2.474-4.518a9.2 9.2 0 0 0-4.465-2.498l-2.246 9.49s-.04-.01-.101-.043a.5.5 0 0 1-.103-.073zM2.88 55.528c2.872 0 4.497 2.428 4.497 4.496h-9.752c0 2.448 1.91 5.257 5.255 5.257zm4.497 4.496a4.43 4.43 0 0 1-3.536 4.351l-1.923-9.56c-2.403.483-4.293 2.585-4.293 5.209zm-3.645 4.372c1.936-.344 3.57-1.333 4.784-2.553l-6.916-6.877.018-.015a1 1 0 0 1 .067-.043 1.1 1.1 0 0 1 .343-.114zm4.784-2.553a9.2 9.2 0 0 0 2.487-4.577l-9.523-2.104c-.007.032-.002-.005.035-.073a.7.7 0 0 1 .085-.123zm2.508-4.678a4.43 4.43 0 0 1-4.356 3.544v-9.752c-2.664 0-4.737 1.935-5.209 4.306zm-4.356 3.544a4.43 4.43 0 0 1-4.357-3.544l9.565-1.902c-.471-2.371-2.544-4.306-5.208-4.306zm-4.322-3.384c.364 1.557 1.131 3.167 2.474 4.518l6.915-6.877a.6.6 0 0 1 .1.134c.018.032.015.037.007.003zm2.474 4.518a9.16 9.16 0 0 0 4.572 2.51l2.127-9.517c-.025-.006.016.002.09.041a.7.7 0 0 1 .126.09zm4.674 2.532a4.43 4.43 0 0 1-3.536-4.352h9.753c0-2.623-1.89-4.725-4.294-5.209zm-3.536-4.352a4.43 4.43 0 0 1 3.536-4.351l1.923 9.56c2.403-.483 4.294-2.585 4.294-5.209zm3.536-4.351c-3.6.724-6.423 3.578-7.135 7.162l9.565 1.903a.6.6 0 0 1-.165.32.66.66 0 0 1-.342.175zm-6.54 5.615c.032-.054.325-.563.939-1.048a4.42 4.42 0 0 1 2.727-.949v9.753c1.235 0 2.39-.418 3.32-1.152a5.9 5.9 0 0 0 1.389-1.607zm-.839 3.284q-.053-.023-.054-.026-.002 0 .013.012l6.915-6.876a9.7 9.7 0 0 0-3.356-2.205zm-.041-.014.01.01.003.006-.006-.01-.015-.036 9.109-3.483a9.7 9.7 0 0 0-2.186-3.363zm9.066.06a.27.27 0 0 1 .136-.154l-3.819-8.974A10.02 10.02 0 0 0 2.1 60.955zm-.014-9.189a.3.3 0 0 1 .054.026l-.013-.011-6.915 6.876a9.7 9.7 0 0 0 3.355 2.205zm.041.015-.01-.011-.003-.005.005.01.016.035-9.11 3.484a9.7 9.7 0 0 0 2.187 3.363zm-9.101.03.015-.036.006-.01-.004.005-.01.01 6.916 6.877a9.7 9.7 0 0 0 2.186-3.363zm-.152.138a.5.5 0 0 1 .2-.135l3.52 9.095a9.2 9.2 0 0 0 3.515-2.42z" mask="url(#a)"/><path fill="#9A9A9A" d="M79.868 13.714c0-.943-.767-1.71-1.713-1.71h-2.9l.738-3.933a2.52 2.52 0 0 0-.444-1.97 2.52 2.52 0 0 0-1.736-1.032 1.033 1.033 0 0 0-1.148.866L72.29 8.43a2.76 2.76 0 0 1-1.89 2.225 3.24 3.24 0 0 0-2.146 2.328.02.02 0 0 1-.02.016h-1.35a1.45 1.45 0 0 0-1.432-1.228h-3.219a.9.9 0 0 0-.895 1.007l.978 8.326a.9.9 0 0 0 .895.796h2.241c.675 0 1.242-.464 1.403-1.09h.19a.42.42 0 0 1 .255.087l.418.325a5.72 5.72 0 0 0 3.486 1.195h5.689c.944 0 1.71-.767 1.71-1.71 0-.364-.115-.7-.309-.979a1.74 1.74 0 0 0 .686-1.382c0-.324-.094-.625-.253-.883.466-.314.773-.846.773-1.447 0-.353-.109-.68-.296-.95.404-.317.664-.805.664-1.352M65.81 20.45c0 .197-.16.356-.356.356h-2.07l-.934-7.942h3.004c.197 0 .356.16.356.356zm11.086.873h-5.69a4.6 4.6 0 0 1-2.815-.965l-.419-.325a1.52 1.52 0 0 0-.926-.318h-.142v-5.623h1.333c.518 0 .964-.353 1.082-.858.17-.72.713-1.31 1.418-1.537a3.84 3.84 0 0 0 2.634-3.103l.366-2.429c.375.066.703.27.928.58a1.45 1.45 0 0 1 .253 1.125l-.747 3.978a1.052 1.052 0 0 0 1.037 1.25h2.947a.618.618 0 1 1 0 1.234H76.15a.547.547 0 0 0 0 1.094h1.673c.324 0 .586.263.586.586a.65.65 0 0 1-.65.65h-1.473a.548.548 0 0 0 0 1.094h1.017c.323 0 .586.262.586.586a.65.65 0 0 1-.65.65h-1.142a.547.547 0 0 0 0 1.094h.797a.619.619 0 0 1 .003 1.237"/></svg>
